X:1
T: Captain E.G. Elder, Black Watch (R.H.R)
C:
R:Strathspey
Q: 128
K:F
M:4/4
L:1/16
|:c4|AF3 A3B c3F d3c|B3G e3d ((3c2d2c2) ((3B2A2G2) |AF3 A3B c3F d3c|B3G g3f ((3e2f2e2) ((3d2c2B2) |
AF3 A3B c3F d3c|=B3G g3f e3c g3a|((3b2a2g2) ((3e2f2g2) ((3f2e2d2) ((3B2c2d2) |((3c2B2A2) ((3B2A2G2) F4:|
|:c4|f3c a3g f3g ((3f2e2d2) |B3G e3d c4 c3B|AF3 d3c B3G e3d|((3c2e2d2) ((3c2B2A2) G4 G3c|
f3c a3g f3g ((3f2e2d2) |B3G e3d c4 c3B|AF3 d3c B3G e3d|((3c2B2A2) ((3B2A2G2) F4:|
G4|A3F Ac3 B3G Bd3|c3A c3f ((3e2f2g2) ((3c2d2e2) |f3c fa3 g3e ((3g2a2b2) |((3a2g2f2) ((3g2f2e2) f3e ((3d2c2B2) |
A3F Ac3 B3G Bd3|c3A c3f ((3e2f2g2) ((3c2d2e2) |f3c fa3 g3e ((3g2a2b2) |((3a2g2f2) ((3g2f2e2) f4||
